X:90
T:Paddy goes to Bulgaria
R:jig
C:Paddy Fahy
H:See also #309
D:Planxty:
Z:id:hn-jig-208
M:6/8
K:Dmaj
DGA ^A3|c^Ac d2g|gfd ^Acd|cAG AGF|
DGA ~^A3|c^Ac d2g|gfd ^Acd|1 cAF G2F:|2 cAF G^Ad||
g2d fga|gfd ^Acd|cAA ~f3|agf def|
g2a ^aag|fdg fdc|^A2G AGF|1 DGF G^Ad:|2 DGF G2F||
